X:8
T:Sanctus de Lourdes - A168
C:J.P. Lecot
%%staves {1 2 3}
M:C
L:1/4
K:F
V:1
C2 |C2 F2 |F2 G A/B/|AG/F/ G3/G/ |A2 ||AA |cc B3/A/|G2 FF |D2 EF |G2||
V:2
A,2|G,2 A,2 |D2 E F |F2 FE |C2 ||F2 |G2 F2 |E2 DC |B,2 C=B,|E2||
V:3
F,2|E,2 D,C,|B,,A,, G,,F,,|B,,2 =B,,C,|F,,2||F,2|E,2 D,2|C,2 D,A,,|G,,2 C,D,|C,2||
